X:13044
T:Monmouth Assembly
T:Burlesque, The
R:Jig
C:Trad. (Thompson 1757)
O:Wales
Z:Paul Hardy's Session Tunebook 2015 (see www.paulhardy.net). Creative Commons cc by-nc-sa licenced.
M:6/8
L:1/8
Q:3/8=80
K:D
A|"D"fdf "A"ecA|("Bm"B/c/d)B "D"AFD|"Em"EFG "A"ABc|"D"def "A"ecA|
"D"fdf "A"ecA|("Bm"B/c/d)B "D"AFD|"Em"EFG "D"Agf|"A"edc "D"d2:|
|:F/G/|"D"ABA "D"AFA|("Bm"B/c/d)B "D"AFA|"Bm"Bcd "Em"efg|"Bm"Bgf "A"ecA|
"D"fdf "A"ecA|("Bm"B/c/d)B "D"AFD|"Em"EFG "D"Agf|"A"edc "D"d2:|

